assets/sonr-icons/face-happy.svg

<svg xmlns="http://www.w3.org/2000/svg" width="24" height="24" fill="none" viewBox="0 0 24 24"><path fill="#000" d="M12 20C7.582 20 4 16.418 4 12C4 7.582 7.582 4 12 4C16.418 4 20 7.582 20 12C20 16.418 16.418 20 12 20ZM12 22C17.523 22 22 17.523 22 12C22 6.477 17.523 2 12 2C6.477 2 2 6.477 2 12C2 17.523 6.477 22 12 22Z"/><path fill="#000" d="M9.99997 9.5C9.99997 10.329 9.32897 11 8.49997 11C7.67097 11 6.99997 10.329 6.99997 9.5C6.99997 8.671 7.67097 8 8.49997 8C9.32897 8 9.99997 8.671 9.99997 9.5ZM17 9.5C17 10.329 16.329 11 15.5 11C14.671 11 14 10.329 14 9.5C14 8.671 14.671 8 15.5 8C16.329 8 17 8.671 17 9.5ZM7.39997 13.2C7.83997 12.869 8.46497 12.958 8.79697 13.396L8.80197 13.402C8.80797 13.41 8.81897 13.424 8.83597 13.443C8.86897 13.483 8.92297 13.544 8.99597 13.621C9.14297 13.775 9.36497 13.983 9.65097 14.192C10.228 14.612 11.026 15 12 15C12.974 15 13.772 14.611 14.349 14.192C14.636 13.984 14.857 13.775 15.004 13.621C15.077 13.545 15.131 13.483 15.164 13.443C15.181 13.424 15.192 13.409 15.198 13.402L15.203 13.396C15.535 12.958 16.159 12.869 16.6 13.2C17.041 13.531 17.131 14.158 16.8 14.6C16.778 14.628 16.776 14.631 16.774 14.634C16.773 14.635 16.772 14.638 16.766 14.644C16.739 14.678 16.726 14.695 16.696 14.729C16.638 14.799 16.554 14.893 16.448 15.004C16.236 15.225 15.926 15.517 15.525 15.808C14.727 16.389 13.525 16.999 11.999 16.999C10.473 16.999 9.27097 16.388 8.47297 15.808C8.07197 15.516 7.76197 15.225 7.54997 15.004C7.44297 14.893 7.35997 14.798 7.30197 14.729C7.27297 14.694 7.24897 14.665 7.23197 14.644L7.21097 14.617L7.20297 14.607L7.19997 14.603L7.19797 14.601L7.19697 14.6C6.86497 14.158 6.95597 13.531 7.39697 13.2H7.39997Z"/></svg>

<svg xmlns="http://www.w3.org/2000/svg" width="24" height="24" fill="none"><path fill="currentColor" d="M12 20a8 8 0 1 1 0-16 8 8 0 0 1 0 16m0 2c5.523 0 10-4.477 10-10S17.523 2 12 2 2 6.477 2 12s4.477 10 10 10"/><path fill="currentColor" d="M10 9.5a1.5 1.5 0 1 1-2.999.001A1.5 1.5 0 0 1 10 9.5m7 0a1.5 1.5 0 1 1-2.999.001A1.5 1.5 0 0 1 17 9.5m-9.6 3.7a1 1 0 0 1 1.397.196l.005.006.034.041a4.98 4.98 0 0 0 .815.749c.577.42 1.375.808 2.349.808s1.772-.389 2.349-.808a5 5 0 0 0 .815-.749l.034-.041.005-.006a1 1 0 1 1 1.571 1.238l-.008.01c-.027.034-.04.051-.07.085q-.088.107-.248.275a7 7 0 0 1-.923.804c-.798.581-2 1.191-3.526 1.191s-2.728-.611-3.526-1.191a7 7 0 0 1-1.171-1.079l-.07-.085-.021-.027-.008-.01-.003-.004-.002-.002-.001-.001a1 1 0 0 1 .2-1.4z"/></svg>
